X:130
T: Paddy O Rafferty with variations
N: O'Farrell's Pocket Companion v.2 (Sky ed. p.65)
N: "Irish"
M: 6/8
L: 1/8
Q: 320
R: jig
K: D
A/B/ |: dff dee|dff ede|Aff Aee|ded dBA|
dff dee|dff gab|agf edB|d2d dBA :|
P:2
d/e/fa A2B|Agf ede|d/e/fa A2B|ded dBA|
d/e/fa A2B|Agf gab|agf ede|d2d dBA :|
P:3
f2d e2d|f2d edB|f2d e2d|d2d dBA|
fdd edd|fdd gab|afd edB|d2d dBA :|
P:4
dfa dfa|efe edB|dfa dfa|ded dBA|
d f/g/a/f/ a f/g/a/f/|a f/g/a/f/ g2e|
f2d e2d|ded dBA :|
P:5
A2A BAB|e2e fdB|A2A BAB|ded dBA|
A2A BAB|efe efg|f2d e2d|d2d dBA :|
P:6
faa eaa|faa e2d|faa eaa|ded dBA|
faa eaa|faa edB|dfa dfa|ded dBA :|
P:7
faf aff|aff edB|faf a f/g/a/f/|a f/g/a/f/ dBA|
faf gbg|faf edB|fgf ede|d2d dBA :|
P:8
A/B/AF A2B|dgf e2d|A/B/AF A2B|dfe dBA|
ABA BAB|efe efg|fad edB|d2d dBA :|
